X: 10091
T: MARQUIS OF LORNE
R: hornpipe
B: K\"ohler's Violin Repository, v.1, 1885 p.9 #2
F: http://www.archive.org/details/klersviolinrepos01edin
Z: 2011 John Chambers <jc:trillian.mit.edu>
M: C|
L: 1/8
K: G
(ub>a) |\
g>fg>e B2(e>d) | c>Bc>A E2(A>G) |\
F>GA>B c>Bc>d | e>d^c>e d2(b>a) |
g>fg>e B2(e>d) | c>Bc>A E1(A>G) |\
F>GA>B c>de>f | g2g2 g2 :|
|: (B>c) |\
d>Bg>e d>Bg>e | d>Bg>e d2(c>B) |\
d>af>d d>af>d | d>af>d c2(B>c) |
d>Bg>e d>Bg>e | d>Bg>e d2(c>B) |\
d>af>d ^c>de>f | g2g2 g2 :|

%%sep 2 1 500

